X: 59
M:C|
L:1/8
K:G
uD2|\
|:ud2|\
{a}gfga bagf | {f}"0"e^def .g2.d2 | {a}gfga bagf | {f}"0"edef .g2.D2 |


